Adwaita++/emblems/16/emblem-system.svg

<svg fill="none" height="16" viewBox="0 0 16 16" width="16" xmlns="http://www.w3.org/2000/svg">
  <path d="m13.6 1h-11.2c-.7732 0-1.4.6268-1.4 1.4v11.2c0 .7732.6268 1.4 1.4 1.4h11.2c.7732 0 1.4-.6268 1.4-1.4v-11.2c0-.7732-.6268-1.4-1.4-1.4z" fill="#9a9996"/>
  <path clip-rule="evenodd" d="m7.375 3-.20833 1.32812c-.41973.09596-.81858.27094-1.17188.4948v-.01302l-1.09375-.78125-.87239.87239.78125 1.09375h.01302c-.22335.3541-.39906.7512-.4948 1.17188l-1.32812.20833v1.25l1.32812.20833c.09574.42068.27145.81778.4948 1.17187h-.01302l-.78125 1.0938.87239.8724 1.09375-.7813v-.013c.3533.2238.75215.3988 1.17188.4948l.20833 1.3281h1.25l.20833-1.3281c.42631-.0975.81431-.2656 1.17187-.4948l1.0938.7943.8724-.8724-.7943-1.0938c.2204-.35159.3738-.75496.4687-1.17187l1.3542-.20833v-1.25l-1.3542-.20833c-.0949-.41691-.2483-.82028-.4687-1.17188h.013l.7813-1.09375-.8724-.87239-1.0938.78125v.01302c-.35756-.2292-.74556-.39733-1.17187-.4948l-.20833-1.32812zm.625 3.33333c.92 0 1.66667.74038 1.66667 1.66667s-.74667 1.66667-1.66667 1.66667-1.66667-.74038-1.66667-1.66667.74667-1.66667 1.66667-1.66667z" fill="#f6f5f4" fill-rule="evenodd"/>
</svg>

<svg xmlns="http://www.w3.org/2000/svg" fill="none" width="16" height="16" viewBox="0 0 16 16">
 <path fill="url(#paint0_linear)" d="M13.6 1H2.4C1.6268 1 1 1.6268 1 2.4V13.6C1 14.3732 1.6268 15 2.4 15H13.6C14.3732 15 15 14.3732 15 13.6V2.4C15 1.6268 14.3732 1 13.6 1Z"/>
 <path fill="url(#paint1_linear)" fill-rule="evenodd" d="M7.375 3L7.16667 4.32812C6.74694 4.42408 6.34809 4.59906 5.99479 4.82292V4.8099L4.90104 4.02865L4.02865 4.90104L4.8099 5.99479H4.82292C4.59957 6.34889 4.42386 6.74599 4.32812 7.16667L3 7.375V8.625L4.32812 8.83333C4.42386 9.25401 4.59957 9.65111 4.82292 10.0052H4.8099L4.02865 11.099L4.90104 11.9714L5.99479 11.1901V11.1771C6.34809 11.4009 6.74694 11.5759 7.16667 11.6719L7.375 13H8.625L8.83333 11.6719C9.25964 11.5744 9.64764 11.4063 10.0052 11.1771L11.099 11.9714L11.9714 11.099L11.1771 10.0052C11.3975 9.65361 11.5509 9.25024 11.6458 8.83333L13 8.625V7.375L11.6458 7.16667C11.5509 6.74976 11.3975 6.34639 11.1771 5.99479H11.1901L11.9714 4.90104L11.099 4.02865L10.0052 4.8099V4.82292C9.64764 4.59372 9.25964 4.42559 8.83333 4.32812L8.625 3H7.375ZM8 6.33333C8.92 6.33333 9.66667 7.07371 9.66667 8C9.66667 8.92629 8.92 9.66667 8 9.66667C7.08 9.66667 6.33333 8.92629 6.33333 8C6.33333 7.07371 7.08 6.33333 8 6.33333Z" clip-rule="evenodd"/>
 <defs>
  <linearGradient id="paint0_linear" x1="1" x2="15" y1="8" y2="8" gradientUnits="userSpaceOnUse">
   <stop stop-color="#9A9996"/>
  </linearGradient>
  <linearGradient id="paint1_linear" x1="3" x2="13" y1="8" y2="8" gradientUnits="userSpaceOnUse">
   <stop stop-color="#F6F5F4"/>
  </linearGradient>
 </defs>
</svg>
